X:1040
T:McGettrick's
R:reel
Z:transcribed by Dave Marshall
M:C|
K:G
|: (3BcB AB G3B | ADFD ADFD | BGAB G~E3 | GEBE G~E3 |
BGAB G3B | ADFD ADFD | EGFA GABd | egfa gedc :|
|: Bdgd Bdgd | BGAG FDD2 | Bdgd Bdge | fgaf gedc |
Bdgd Bdgd | BGAG FDD2 | EGFA GABd | egfa gedc :|
